src/assets/images/clients/toyota.svg

<svg width="121" height="19" viewBox="0 0 121 19" fill="none" xmlns="http://www.w3.org/2000/svg">
<g clip-path="url(#clip0_615_5266)">
<path fill-rule="evenodd" clip-rule="evenodd" d="M11.5379 9.84226C11.5379 9.69815 11.5432 9.41511 11.5432 9.41511C7.08804 8.74768 3.86839 6.91632 3.7794 4.7632C2.68253 6.06906 2.06017 7.56445 2.06017 9.15784C2.06017 13.8465 7.45224 17.6882 14.3059 18.0306C12.7182 17.0754 11.5379 13.7698 11.5379 9.84226V9.84226ZM0 9.49994C0 4.25364 6.83982 0 15.2778 0C23.7155 0 30.5556 4.25364 30.5556 9.49994C30.5556 14.7462 23.7154 19 15.2778 19C6.83982 19 0 14.7461 0 9.49994V9.49994ZM18.8064 7.01785C21.9763 6.54452 24.1951 5.45837 24.1951 4.19447C24.1951 2.4981 20.2022 1.12452 15.2778 1.12452C10.353 1.12452 6.36046 2.49821 6.36046 4.19447C6.36046 5.45837 8.5789 6.54452 11.7491 7.01785C12.2634 3.72964 13.6492 1.37104 15.2778 1.37104C16.9067 1.37104 18.2922 3.72952 18.8064 7.01785ZM16.2498 18.0305C23.1031 17.6882 28.4959 13.8464 28.4959 9.15773C28.4959 7.56445 27.8728 6.06906 26.7759 4.76309C26.6868 6.9162 23.468 8.74757 19.0124 9.415C19.0124 9.415 19.0179 9.69803 19.0179 9.84215C19.0179 13.7696 17.8368 17.0753 16.2497 18.0305H16.2498ZM17.3952 7.17861C17.057 5.06958 16.2365 3.58078 15.2778 3.58078C14.3191 3.58078 13.4988 5.06958 13.1601 7.17861C14.591 7.29078 16.001 7.29258 17.3952 7.17861V7.17861ZM12.9949 9.58679C13.0509 12.6409 14.051 15.0769 15.2778 15.0769C16.5041 15.0769 17.5045 12.641 17.5611 9.58679C15.9937 9.71678 14.4636 9.71668 12.9949 9.58679V9.58679Z" fill="#99BAFF"/>
<path fill-rule="evenodd" clip-rule="evenodd" d="M68.9667 16.4311H72.2171V11.2323L77.8084 2.73992H74.0662L70.5919 8.49462L67.1181 2.73992H63.3747L68.9667 11.2323V16.4311ZM48.0125 9.49998C48.0125 5.49008 51.4187 2.23926 55.6202 2.23926C59.8215 2.23926 63.2273 5.48996 63.2273 9.49998C63.2273 13.5103 59.8215 16.7607 55.6202 16.7607C51.4187 16.7607 48.0125 13.5103 48.0125 9.49998V9.49998ZM55.6202 14.0983C57.9654 14.0983 59.8675 12.0393 59.8675 9.49998C59.8675 6.96074 57.9655 4.90159 55.6202 4.90159C53.2747 4.90159 51.3726 6.96074 51.3726 9.49998C51.3726 12.0392 53.2747 14.0983 55.6202 14.0983V14.0983ZM42.7217 16.4311H39.5165V5.26448H35.0449V2.73992H47.1928V5.26448H42.7217V16.4311ZM110.15 13.3506L108.918 16.4311H105.175L111.092 2.73981H115.081L120.999 16.4311H117.256L116.023 13.3506L110.15 13.3506ZM113.101 6.02938H113.073L111.07 11.0402H115.103L113.101 6.02938ZM101.802 16.4311H98.5972V5.26448H94.1256V2.73992H106.273V5.26448H101.802V16.4311ZM77.9566 9.49998C77.9566 5.49008 81.363 2.23926 85.563 2.23926C89.7652 2.23926 93.1711 5.48996 93.1711 9.49998C93.1711 13.5103 89.7652 16.7607 85.563 16.7607C81.363 16.7607 77.9566 13.5103 77.9566 9.49998ZM85.563 14.0983C87.9094 14.0983 89.8114 12.0393 89.8114 9.49998C89.8114 6.96074 87.9094 4.90159 85.563 4.90159C83.2183 4.90159 81.3167 6.96074 81.3167 9.49998C81.3167 12.0392 83.2183 14.0983 85.563 14.0983Z" fill="#99BAFF"/>
</g>
<defs>
<clipPath id="clip0_615_5266">
<rect width="121" height="19" fill="white"/>
</clipPath>
</defs>
</svg>

<svg xmlns="http://www.w3.org/2000/svg" width="121" height="19" fill="none" xmlns:v="https://vecta.io/nano"><g clip-path="url(#A)" fill-rule="evenodd" fill="#99baff"><path d="M11.538 9.842l.005-.427c-4.455-.667-7.675-2.499-7.764-4.652C2.683 6.069 2.06 7.564 2.06 9.158c0 4.689 5.392 8.53 12.246 8.873-1.588-.955-2.768-4.261-2.768-8.188h0zM0 9.5C0 4.254 6.84 0 15.278 0s15.278 4.254 15.278 9.5-6.84 9.5-15.278 9.5S0 14.746 0 9.5h0zm18.806-2.482c3.17-.473 5.389-1.559 5.389-2.823 0-1.696-3.993-3.07-8.917-3.07S6.36 2.498 6.36 4.194c0 1.264 2.218 2.35 5.389 2.823.514-3.288 1.9-5.647 3.529-5.647s3.014 2.358 3.529 5.647zM16.25 18.031c6.853-.342 12.246-4.184 12.246-8.873 0-1.593-.623-3.089-1.72-4.395-.089 2.153-3.308 3.984-7.764 4.652l.006.427c0 3.927-1.181 7.233-2.768 8.188h0zm1.145-10.852c-.338-2.109-1.159-3.598-2.117-3.598S13.499 5.07 13.16 7.179a26.48 26.48 0 0 0 4.235 0h0zm-4.4 2.408c.056 3.054 1.056 5.49 2.283 5.49s2.227-2.436 2.283-5.49a26.77 26.77 0 0 1-4.566 0h0zm55.972 6.844h3.25v-5.199l5.591-8.492h-3.742l-3.474 5.755-3.474-5.755h-3.743l5.592 8.492v5.199zM48.013 9.5c0-4.01 3.406-7.261 7.608-7.261S63.227 5.49 63.227 9.5s-3.406 7.261-7.607 7.261-7.608-3.25-7.608-7.261h0zm7.608 4.598c2.345 0 4.247-2.059 4.247-4.598s-1.902-4.598-4.247-4.598-4.248 2.059-4.248 4.598 1.902 4.598 4.248 4.598h0zm-12.898 2.333h-3.205V5.264h-4.472V2.74h12.148v2.525h-4.471v11.167zm67.428-3.081l-1.232 3.081h-3.743l5.917-13.691h3.989L121 16.431h-3.743l-1.233-3.081h-5.873zm2.951-7.321h-.028l-2.003 5.011h4.033l-2.002-5.011zm-11.299 10.402h-3.205V5.264h-4.472V2.74h12.147v2.525h-4.471v11.167zM77.957 9.5c0-4.01 3.406-7.261 7.606-7.261S93.171 5.49 93.171 9.5s-3.406 7.261-7.608 7.261-7.606-3.25-7.606-7.261zm7.606 4.598c2.346 0 4.248-2.059 4.248-4.598s-1.902-4.598-4.248-4.598-4.246 2.059-4.246 4.598 1.902 4.598 4.246 4.598z"/></g><defs><clipPath id="A"><path fill="#fff" d="M0 0h121v19H0z"/></clipPath></defs></svg>
